epam-assets/icon-sources/18/content-clear-outline.svg

<svg width="18" height="18" viewBox="0 0 18 18" fill="none" xmlns="http://www.w3.org/2000/svg">
<g id="18/content-clear-outline">
<path id="icon" fill-rule="evenodd" clip-rule="evenodd" d="M12.182 6.87868L11.1213 5.81802L9 7.93934L6.87868 5.81802L5.81802 6.87868L7.93934 9L5.81802 11.1213L6.87868 12.182L9 10.0607L11.1213 12.182L12.182 11.1213L10.0607 9L12.182 6.87868ZM9 1.5C4.86 1.5 1.5 4.86 1.5 9C1.5 13.14 4.86 16.5 9 16.5C13.14 16.5 16.5 13.14 16.5 9C16.5 4.86 13.14 1.5 9 1.5ZM9 15C5.6925 15 3 12.3075 3 9C3 5.6925 5.6925 3 9 3C12.3075 3 15 5.6925 15 9C15 12.3075 12.3075 15 9 15Z" fill="#6C6F80"/>
</g>
</svg>

<svg xmlns="http://www.w3.org/2000/svg" width="18" height="18" fill="none" viewBox="0 0 18 18">
  <path fill="#6C6F80" fill-rule="evenodd" d="m12.182 6.879-1.06-1.061L9 7.939 6.879 5.818l-1.061 1.06L7.939 9l-2.121 2.121 1.06 1.061L9 10.061l2.121 2.121 1.061-1.06L10.061 9l2.121-2.121ZM9 1.5C4.86 1.5 1.5 4.86 1.5 9c0 4.14 3.36 7.5 7.5 7.5 4.14 0 7.5-3.36 7.5-7.5 0-4.14-3.36-7.5-7.5-7.5ZM9 15c-3.308 0-6-2.693-6-6 0-3.308 2.692-6 6-6 3.307 0 6 2.692 6 6 0 3.307-2.693 6-6 6Z" clip-rule="evenodd"/>
</svg>
